src/ios-toggle-outline.svg

<?xml version="1.0" encoding="utf-8"?>
<!-- Generated by IcoMoon.io -->
<!DOCTYPE svg PUBLIC "-//W3C//DTD SVG 1.1//EN" "http://www.w3.org/Graphics/SVG/1.1/DTD/svg11.dtd">
<svg version="1.1" xmlns="http://www.w3.org/2000/svg" xmlns:xlink="http://www.w3.org/1999/xlink" width="512" height="512" viewBox="0 0 512 512">
<path fill="#000000" d="M128 320c26.467 0 48 21.533 48 48s-21.533 48-48 48-48-21.533-48-48 21.533-48 48-48zM128 304c-35.346 0-64 28.654-64 64s28.654 64 64 64 64-28.653 64-64c0-35.346-28.654-64-64-64v0z"></path>
<path fill="#000000" d="M383.25 288c44.388 0 80.625 36.112 80.625 80.5s-35.987 79.5-80.375 79.5h-255c-44.388 0-80.5-35.112-80.5-79.5s36.112-80.5 80.5-80.5h254.5zM383.5 272h-255c-53.295 0-96.5 43.205-96.5 96.5s43.205 95.5 96.5 95.5h255c53.295 0 96.5-42.205 96.5-95.5s-43.205-96.5-96.5-96.5v0z"></path>
<path fill="#000000" d="M384 96c26.467 0 48 21.533 48 48s-21.533 48-48 48-48-21.533-48-48 21.533-48 48-48zM384 80c-35.346 0-64 28.654-64 64 0 35.347 28.654 64 64 64s64-28.653 64-64c0-35.346-28.654-64-64-64v0z"></path>
<path fill="#000000" d="M129 64h254.5c44.388 0 80.5 36.112 80.5 80.5s-36.112 79.5-80.5 79.5h-255c-44.388 0-80.375-35.112-80.375-79.5s36.237-80.5 80.625-80.5zM128.5 48c-53.295 0-96.5 43.205-96.5 96.5s43.205 95.5 96.5 95.5h255c53.295 0 96.5-42.205 96.5-95.5s-43.205-96.5-96.5-96.5h-255z"></path>
</svg>

<?xml version="1.0" encoding="utf-8"?>
<!-- Generator: Adobe Illustrator 16.2.1, SVG Export Plug-In . SVG Version: 6.00 Build 0)  -->
<!DOCTYPE svg PUBLIC "-//W3C//DTD SVG 1.1//EN" "http://www.w3.org/Graphics/SVG/1.1/DTD/svg11.dtd">
<svg version="1.1" id="Layer_1" xmlns="http://www.w3.org/2000/svg" xmlns:xlink="http://www.w3.org/1999/xlink" x="0px" y="0px"
	 width="512px" height="512px" viewBox="0 0 512 512" enable-background="new 0 0 512 512" xml:space="preserve">
<g>
	<g>
		<path d="M128,320c26.467,0,48,21.533,48,48s-21.533,48-48,48s-48-21.533-48-48S101.533,320,128,320 M128,304
			c-35.346,0-64,28.654-64,64c0,35.347,28.654,64,64,64s64-28.653,64-64C192,332.654,163.346,304,128,304L128,304z"/>
		<path d="M383.25,288c44.388,0,80.625,36.112,80.625,80.5S427.888,448,383.5,448h-255C84.112,448,48,412.888,48,368.5
			S84.112,288,128.5,288H383 M383.5,272h-255C75.205,272,32,315.205,32,368.5S75.205,464,128.5,464h255
			c53.295,0,96.5-42.205,96.5-95.5S436.795,272,383.5,272L383.5,272z"/>
	</g>
	<g>
		<path d="M384,96c26.467,0,48,21.533,48,48s-21.533,48-48,48s-48-21.533-48-48S357.533,96,384,96 M384,80
			c-35.346,0-64,28.654-64,64c0,35.347,28.654,64,64,64s64-28.653,64-64C448,108.654,419.346,80,384,80L384,80z"/>
		<path d="M129,64h254.5c44.388,0,80.5,36.112,80.5,80.5S427.888,224,383.5,224h-255c-44.388,0-80.375-35.112-80.375-79.5
			S84.362,64,128.75,64 M128.5,48C75.205,48,32,91.205,32,144.5S75.205,240,128.5,240h255c53.295,0,96.5-42.205,96.5-95.5
			S436.795,48,383.5,48H128.5L128.5,48z"/>
	</g>
</g>
</svg>
